icons/triangle-check.svg

<svg xmlns="http://www.w3.org/2000/svg" width="24" height="24" viewBox="0 0 24 24">
  <path d="M9.37135227,3.70432092 C10.1698214,2.25255887 11.9939942,1.72296031 13.4457562,2.52142944 C13.9442354,2.79559297 14.3544842,3.20584177 14.6286477,3.70432092 L14.6286477,3.70432092 L22.2461053,17.5542438 C23.0445744,19.0060058 22.5149759,20.8301786 21.0632138,21.6286477 C20.6202789,21.8722619 20.1229665,22 19.6174576,22 L19.6174576,22 L4.38254244,22 C2.72568819,22 1.38254244,20.6568542 1.38254244,19 C1.38254244,18.4944911 1.5102805,17.9971787 1.75389472,17.5542438 L1.75389472,17.5542438 Z M15.1616337,12.2501621 C14.7475097,11.8847586 14.1155778,11.9242544 13.7501742,12.3383784 L13.7501742,12.3383784 L10.9700121,15.488 L10.2498499,14.6717117 L10.1610152,14.5828086 C9.78851489,14.2539073 9.22065875,14.2461999 8.83839043,14.5834955 C8.42426642,14.948899 8.38477067,15.580831 8.75017421,15.994955 L8.75017421,15.994955 L10.2207624,17.6616216 L10.3105198,17.7513955 C10.7177952,18.1104909 11.3507811,18.0805663 11.7204382,17.6616216 L11.7204382,17.6616216 L15.2498499,13.6616216 L15.327,13.5624086 C15.6069605,13.1518544 15.543902,12.5874577 15.1616337,12.2501621 Z"/>
</svg>

<svg xmlns="http://www.w3.org/2000/svg" viewBox="0 0 24 24">
  <path d="M9.37 3.7a3 3 0 0 1 5.26 0l7.62 13.85A3 3 0 0 1 19.62 22H4.38a3 3 0 0 1-2.63-4.45zm5.8 8.55a1 1 0 0 0-1.42.09l-2.78 3.15-.72-.82-.09-.09A1 1 0 0 0 8.75 16l1.47 1.67.1.1a1 1 0 0 0 1.4-.1l3.53-4 .08-.1a1 1 0 0 0-.17-1.31z"/>
</svg>
